!!!COM: Bach, Johann Sebastian
!!!CDT: 1685/02/21/-1750/07/28/
!!!OTL@@DE: Freu dich sehr, o meine Seele
!!!SCT: BWV 194/6
!!!PC#: 64
!!!AGN: chorale
**harm	**kern	**kern	**kern	**kern
*	*ICvox	*ICvox	*ICvox	*ICvox
*	*Ibass	*Itenor	*Ialto	*Isoprn
*	*I"Bass	*I"Tenor	*I"Alto	*I"Soprano
*>[A,A,B]	*>[A,A,B]	*>[A,A,B]	*>[A,A,B]	*>[A,A,B]
*norep[A,B]	*>norep[A,B]	*>norep[A,B]	*>norep[A,B]	*>norep[A,B]
*>A	*>A	*>A	*>A	*>A
*	*	*oclefC4	*oclefC3	*oclefC1
*	*clefF4	*clefGv2	*clefG2	*clefG2
*k[f#]	*k[f#]	*k[f#]	*k[f#]	*k[f#]
*G:	*G:	*G:	*G:	*G:
*M4/4	*M4/4	*M4/4	*M4/4	*M4/4
*met(c)	*met(c)	*met(c)	*met(c)	*met(c)
*MM100	*MM100	*MM100	*MM100	*MM100
=1-	=1-	=1-	=1-	=1-
I	4G	4B	4d	4g
V	4D	4F#	4d	4a
I	4GG	4G	4d	4b
V/V	4AA	4E	4c#	4a
=2	=2	=2	=2	=2
D:IV6	8BBL	8DL	8BL	8gL
vii%7	8C#J	8EJ	8BJ	8gJ
I	4D	4F#	4A	4f#
V	4AA	4A	4c#	4e
I;	4DD;	4F#;	4d;	4d;
=3	=3	=3	=3	=3
G:vi	4E	4G	4B	4g
V	8DL	8F#L	8dL	8aL
V2	8CnXJ	8F#J	8dJ	8aJ
I6	4BB	4G	4d	4b
V65	4FF#	4A	4d	4ccnX
=4	=4	=4	=4	=4
I	4GG	4G	4d	4b
V	4DD	4F#	4d	4a
I;	2GG;	2B;	2d;	2g;
=5:|!	=5:|!	=5:|!	=5:|!	=5:|!
*>B	*>B	*>B	*>B	*>B
I	4G	4d	4g	4b
IV6	4E	4e	4g	4cc
V	4D	4A	4f#	4dd
ii	8AAL	8cL	8eL	8ccL
viio6	8AAJ	8cJ	8f#J	8ccJ
=6	=6	=6	=6	=6
I6	4BB	4d	4g	4b
V	4D	4d	4f#	4a
I;	2GG;	2d;	2g;	2b;
=7	=7	=7	=7	=7
I	4GG	4B	4g	4dd
I6	4BB	4B	4g	4dd
IV	4C	4c	4g	4ee
iii6	4D	4B	4f#	4dd
=8	=8	=8	=8	=8
IV6	4E	4G	4e	4cc
I	4G	4G	4d	4b
V;	2D;	2F#;	2d;	2a;
=9	=9	=9	=9	=9
I	4G	4G	4d	4b
I	8GGL	8BL	8gL	8ddL
C:V7	8GGJ	8BJ	8fJ	8ddJ
vi	4AA	4A	4e	4cc
V6	4BB	4G	4d	4b
=10	=10	=10	=10	=10
I	4C	4G	4e	4g
e:iv6	4C	4E	4e	4a
V(64)	4BB	4G	4e	4b
V	4BB	4F#	4d#	4b
=11	=11	=11	=11	=11
i;	2E;	2E;	2B;	2g;
i	4E	4G	4e	4b
C:V65	4BB	4G	4f	4dd
=12	=12	=12	=12	=12
I	4C	4G	4e	4cc
G:vi	4E	4G	4B	4b
V2	4C	4F#	4d	4a
I	4GG	4G	4d	4b
=13	=13	=13	=13	=13
V(54)	4D	4G	4d	4a
V	4DD	4F#	4d	4a
I	2GG;	2B;	2d;	2g;
==	==	==	==	==
*-	*-	*-	*-	*-
!!!YOR1: 371 vierstimmige Choralges&auml;nge von Johann Sebastian Bach, 
!!!YOR2: 4th ed. by Alfred D&ouml;rffel (Leipzig: Breitkopf und H&auml;rtel, 
!!!YOR2: c.1875). 178 pp. Plate "V.A.10".  reprint: J.S. Bach, 371 Four-Part 
!!!YOR4: Chorales (New York: Associated Music Publishers, Inc., c.1940).
!!!SMS: B&H, 4th ed, Alfred D&ouml;rffel, c.1875, plate V.A.10
!!!EED:  Craig Stuart Sapp
!!!EEV:  2009/05/22
